azure-patterns/svg-bing-local-business-search.svg

<svg xmlns="http://www.w3.org/2000/svg" viewBox="0 0 49 49">
                                
                            
<path d="M29.5546 9.45801C26.3409 9.45801 23.7339 12.0651 23.7339 15.2788C23.7339 18.4925 26.3409 21.0995 29.5546 21.0995C32.7684 21.0995 35.3754 18.4925 35.3754 15.2788C35.3754 12.0651 32.7684 9.45801 29.5546 9.45801ZM29.5546 18.1974C27.9478 18.1974 26.6361 16.8856 26.6361 15.2788C26.6361 13.6719 27.9478 12.3602 29.5546 12.3602C31.1615 12.3602 32.4732 13.6719 32.4732 15.2788C32.4732 16.8856 31.1615 18.1974 29.5546 18.1974Z" fill="#0E65AF"></path>
<path d="M43.9341 16.6397C43.9341 16.0986 43.9013 15.5739 43.8521 15.0492C43.0651 7.85114 36.9656 2.24353 29.5543 2.24353C21.602 2.24353 15.1582 8.68736 15.1582 16.6397C15.1582 18.9188 15.6829 21.0667 16.6339 22.9851C17.5029 22.772 18.4047 22.6572 19.3393 22.6572C19.4213 22.6572 19.5197 22.6572 19.6017 22.6572C18.5359 20.9028 17.9128 18.8368 17.9128 16.6233C17.9128 10.1958 23.1269 4.98175 29.5543 4.98175C35.6702 4.98175 40.6876 9.70395 41.1631 15.6887C41.1795 16.0002 41.1959 16.3117 41.1959 16.6233C41.327 24.0181 29.6035 43.12 29.6035 43.12C29.6035 43.12 29.1116 42.3002 28.5214 41.3C27.9147 42.0871 27.2096 42.7921 26.4226 43.3988C27.4884 45.2352 29.5052 48.7604 29.4724 48.7768C29.3904 48.8752 44.0325 26.0349 43.9341 16.6397Z" fill="#0E65AF"></path>
<path d="M19.3394 24.7887C14.1089 24.7887 9.87864 29.019 9.87864 34.2495C9.87864 36.3482 10.5673 38.283 11.7151 39.8571L4.66455 46.9076L6.74691 48.99L13.7974 41.9395C15.3551 43.0544 17.2571 43.7103 19.3066 43.7103C24.5371 43.7103 28.7674 39.48 28.7674 34.2495C28.7674 29.019 24.5535 24.7887 19.3394 24.7887ZM19.3066 40.8737C15.6666 40.8737 12.7152 37.9223 12.7152 34.2823C12.7152 30.6423 15.6666 27.6909 19.3066 27.6909C22.9467 27.6909 25.898 30.6423 25.898 34.2823C25.898 37.9223 22.9631 40.8737 19.3066 40.8737Z" fill="#0E65AF"></path>
</svg>

<svg xmlns="http://www.w3.org/2000/svg" viewBox="0 0 49 49"><path d="M29.555 9.458a5.822 5.822 0 1 0 5.82 5.82 5.822 5.822 0 0 0-5.82-5.82zm0 8.74a2.925 2.925 0 0 1-2.919-2.92 2.925 2.925 0 0 1 2.919-2.918 2.925 2.925 0 0 1 2.918 2.919 2.925 2.925 0 0 1-2.918 2.918z" fill="#0E65AF"/><path d="M43.934 16.64c0-.541-.033-1.066-.082-1.59-.787-7.199-6.886-12.806-14.298-12.806-7.952 0-14.396 6.443-14.396 14.396 0 2.279.525 4.427 1.476 6.345a11.32 11.32 0 0 1 2.705-.328h.263a11.59 11.59 0 0 1-1.69-6.034c0-6.427 5.215-11.641 11.642-11.641 6.116 0 11.134 4.722 11.61 10.707.015.311.032.623.032.934.131 7.395-11.592 26.497-11.592 26.497s-.492-.82-1.083-1.82a11.562 11.562 0 0 1-2.098 2.099c1.065 1.836 3.082 5.361 3.05 5.378-.083.098 14.56-22.742 14.461-32.137z" fill="#0E65AF"/><path d="M19.34 24.789c-5.231 0-9.461 4.23-9.461 9.46 0 2.1.688 4.034 1.836 5.608l-7.05 7.05 2.082 2.083 7.05-7.05a9.435 9.435 0 0 0 5.51 1.77c5.23 0 9.46-4.23 9.46-9.46 0-5.231-4.213-9.461-9.428-9.461zm-.033 16.085a6.592 6.592 0 1 1 6.591-6.592 6.581 6.581 0 0 1-6.591 6.592z" fill="#0E65AF"/></svg>
